src/status/22/battery-full-charging.svg

<svg width="22" height="22" version="1.1" xmlns="http://www.w3.org/2000/svg">
 <g transform="translate(-1,-1)" fill="#fff">
  <g fill-rule="evenodd" paint-order="stroke fill markers">
   <path d="m4.521 9a0.532 0.532 0 0 0-0.521 0.545v4.91c0 0.303 0.233 0.545 0.521 0.545h4.449l0.25-1h-1.72a1 1 0 0 1-0.832-1.555l2.297-3.445h-4.445zm7.51 0-0.25 1h1.72a1 1 0 0 1 0.831 1.555l-2.297 3.445h4.444a0.532 0.532 0 0 0 0.521-0.545v-4.91a0.532 0.532 0 0 0-0.52-0.545h-4.45z"/>
   <path d="m4 7c-1.108 0-2 0.892-2 2v6c0 1.108 0.892 2 2 2h13c1.108 0 2-0.892 2-2v-6c0-1.108-0.892-2-2-2zm0 1h13c0.554 0 1 0.446 1 1v6c0 0.554-0.446 1-1 1h-13c-0.554 0-1-0.446-1-1v-6c0-0.554 0.446-1 1-1zm16 2v4a2 2 0 0 0 2-2 2 2 0 0 0-2-2z"/>
  </g>
  <path d="m10.834 8-3.334 5h3l-0.75 3h0.416l3.334-5h-3l0.75-3z"/>
 </g>
</svg>

<svg width="22" height="22" xmlns="http://www.w3.org/2000/svg"><g fill="#fff"><g fill-rule="evenodd" paint-order="stroke fill markers"><path d="M4.521 9A.532.532 0 004 9.545v4.91c0 .303.233.545.521.545H8.97l.25-1H7.5a1 1 0 01-.832-1.555L8.965 9H4.52zm7.51 0l-.25 1h1.72a1 1 0 01.831 1.555L12.035 15h4.444a.532.532 0 00.521-.545v-4.91A.532.532 0 0016.48 9H12.03z"/><path d="M4 7c-1.108 0-2 .892-2 2v6c0 1.108.892 2 2 2h13c1.108 0 2-.892 2-2V9c0-1.108-.892-2-2-2zm0 1h13c.554 0 1 .446 1 1v6c0 .554-.446 1-1 1H4c-.554 0-1-.446-1-1V9c0-.554.446-1 1-1zM20 10v4a2 2 0 002-2 2 2 0 00-2-2z"/></g><path d="M10.834 8L7.5 13h3l-.75 3h.416l3.334-5h-3l.75-3z"/></g></svg>
